X:1
T:Behüt dich Gott
T:Behüt dich Gott
T:Nr. 7 fra Jahreszeiten, opus 186
T:Josef Rheinberger
T:Albert Wittstock
C:Josef Rheinberger
Z:Albert Wittstock
%%score [ 1 2 3 4 ]
L:1/8
Q:1/4=60
M:3/4
K:Db
V:1 treble nm="Soprano"
V:2 treble nm="Alto"
V:3 treble-8 nm="Tenor"
V:4 bass nm="Bass"
V:1
"^Adagio" z6 | z4"^dolce"!p! (dA) | G3/2 F/ E2 (eA) | A3/2 B/ A2!<(! (Ad)!<)! | %4
w: |1.Wie _|klingst du schön, wie _|klingst du schön, o _|
w: |2.Durch _|Wald und Hain, durch _|Wald und Hain, ruft's _|
w: |3.Nimm's _|zum Ge- leit, nimm's _|zum Ge- leit, das _|
!f! f3/2 f/ g2 (de) | !fermata!f4 z!pp! F |"^cresc." F3/2 F/ F2 z F | F3/2 F/ (A=G) z G | %8
w: al- tes trau- tes _|Wort! Wie|Frie- dens- gruß aus|Him- mels- höhn, _ wie|
w: je- der Blü- ten- *|strauch, im|Ster- nen- glanz, im|Son- nen- schein, _ im|
w: ist ge- sagt ge- *|nug; be-|hüt' dich Gott für|al- le Zeit, _ be-|
 B3/2 c/ d2 d2 | (3(dc) d (e2 A2) |!f! d2 e d c3/2 e/ |!>(! d4-!>)! d z |!pp! F2 E D C3/2 E/ | %13
w: Frie- dens- gruß aus|Him- * mels- höhn _|so tönts im In- nern|fort, _|so tönts im In- nern|
w: Ster- nen- glanz, im|Son- * nen- schein _|weht's still der Lüf- te|Hauch, _|weht's still der Lüf- te|
w: hüt dich Gott für|al- * le Zeit: _|ein rech- ter Se- gens-|spruch, _|ein rech- ter Se- gens-|
 !fermata!D4 z2 |] %14
w: fort.|
w: Hauch.|
w: spruch!|
V:2
 z6 | z4"^dolce"!p! D2 | C3/2 C/ E2 C2 | D3/2 C/ D2!<(! A2!<)! |!f! A3/2 A/ __B2 B2 | %5
w: |1.Wie|klingst du schön, wie|klingst du schön, o|al- tes trau- tes|
w: |2.Durch|Wald und Hain, durch|Wald und Hain, ruft's|je- der Blü- ten-|
w: |3.Nimm's|zum Ge- leit, nimm's|zum Ge- leit, das|ist ge- sagt ge-|
 !fermata!A4 z!pp! D |"^cresc." E3/2 E/ E2 z E | D3/2 F/ _F2 z F | E3/2 E/ (_F E2) E | E3/2 D/ C4 | %10
w: Wort! Wie|Frie- dens- gruß aus|Him- mels- höhn, wie|Frie- dens- gruß _ aus|Him- mels- höhn|
w: strauch, im|Ster- nen- glanz, im|Son- nen- schein, im|Ster- nen- glanz, _ im|Son- nen- schein|
w: nug; be-|hüt' dich Gott für|al- le Zeit, be-|hüt dich Gott _ für|al- le Zeit:|
!f! (DA) G F E3/2 G/ |!>(! D4-!>)! D z |!pp! D2 A, A, A,3/2 A,/ | !fermata!A,4 z2 |] %14
w: so _ tönts im In- nern|fort, _|so tönts im In- nern|fort.|
w: weht's _ still der Lüf- te|Hauch, _|weht's still der Lüf- te|Hauch.|
w: ein _ rech- ter Se- gens-|spruch, _|ein rech- ter Se- gens-|spruch!|
V:3
 z!p!"^dolce"!<(! A d2!<)!!>(! e2!>)! | A4 A2 | A3/2 A/ A2 A2 | A3/2 G/ A2!<(! A2!<)! | %4
w: 1.Be- hüt' dich|Gott! Wie|klingst du schön, wie|klingst du schön, o|
w: 2.Be- hüt' dich|Gott! Durch|Wald und Hain, durch|Wald und Hain, ruft's|
w: 3.Be- hüt' dich|Gott! Nimm's|zum Ge- leit, nimm's|zum Ge- leit, das|
!f! d3/2 d/ d2 g2 | !fermata!f4 z!pp! A |"^cresc." c3/2 c/ c2 z c | d3/2 d/ d2 z d | %8
w: al- tes trau- tes|Wort! Wie|Frie- dens- gruß aus|Him- mels- höhn, wie|
w: je- der Blü- ten-|strauch, im|Ster- nen- glanz, im|Son- nen- schein, im|
w: ist ge- sagt ge-|nug; be-|hüt' dich Gott für|al- le Zeit, be-|
 d3/2 c/ B2 B2 | __B3/2 B/ A4 |!f! A2 A A A3/2 c/ |!>(! d4-!>)! d z | z!pp! A G F E3/2 G/ | %13
w: Frie- dens- gruß aus|Him- mels- höhn|so tönts im In- nern|fort, _|so tönts im In- nern|
w: Ster- nen- glanz, im|Son- nen- schein|weht's still der Lüf- te|Hauch, _|weht's still der Lüf- te|
w: hüt dich Gott für|al- le Zeit:|ein rech- ter Se- gens-|spruch, _|ein rech- ter Se- gens-|
 !fermata!F4 z2 |] %14
w: fort.|
w: Hauch.|
w: spruch!|
V:4
 z6 | z4"^dolce"!p! A,2 | E,3/2 D,/ C,2 G,2 | F,3/2 E,/ F,2!<(! (A,F,)!<)! | %4
w: |1.Wie|klingst du schön, wie|klingst du schön, o _|
w: |2.Durch|Wald und Hain, durch|Wald und Hain, ruft's _|
w: |3.Nimm's|zum Ge- leit, nimm's|zum Ge- leit, das _|
!f! D,3/2 D,/ G,2 __B,2 | !fermata!D4 z!pp! D, |"^cresc." =A,,3/2 [A,,=A,]/ [A,,A,]2 z [A,,A,] | %7
w: al- tes trau- tes|Wort! Wie|Frie- dens- gruß aus|
w: je- der Blü- ten-|strauch, im|Ster- nen- glanz, im|
w: ist ge- sagt ge-|nug; be-|hüt' dich Gott für|
 [B,,B,]3/2 [B,,B,]/ B,2 z B, | =G,3/2 G,/ G,2 G,2 | _G,3/2 G,/ G,4 |!f! F,2 A, A, A,3/2 A,/ | %11
w: Him- mels- höhn, wie|Frie- dens- gruß aus|Him- mels- höhn|so tönts im In- nern|
w: Son- nen- schein, im|Ster- nen- glanz, im|Son- nen- schein|weht's still der Lüf- te|
w: al- le Zeit, be-|hüt dich Gott für|al- le Zeit:|ein rech- ter Se- gens-|
!>(! (D2 A,)!>)! z D,2 | A,,3 A,, A,,3/2 A,,/ | !fermata!D,4 z2 |] %14
w: fort, _ so|tönts im In- nern|fort.|
w: Hauch, _ weht's|still der Lüf- te|Hauch.|
w: spruch, _ ein|rech- ter Se- gens-|spruch!|

